avogadro/qtplugins/templatetool/centers/3-tpl.svg

<svg xmlns="http://www.w3.org/2000/svg" xmlns:xlink="http://www.w3.org/1999/xlink" width="33" height="20" viewBox="0 0 33 20" style="background-color:#ffffff00" version="1.1"><path fill="#000" stroke="none" d="M 4151.61,2371.12 L 4148.46,2383.16 L 3862.34,2383.16 L 3862.34,2371.12 L 4151.61,2371.12 Z" transform="matrix(0.05 0 0 0.05 -191 -110)"/><path fill="#000" stroke="none" d="M 4414.59,2495.15 L 4384.58,2547.1 L 4148.46,2383.16 L 4151.61,2371.12 L 4414.59,2495.15 Z" transform="matrix(0.05 0 0 0.05 -191 -110)"/><path fill="#000" stroke="none" d="M 4420.98,2273.32 L 4436.55,2331.27 L 4424.62,2333.22 L 4409.67,2277.61 L 4420.98,2273.32 Z" transform="matrix(0.05 0 0 0.05 -191 -110)"/><path fill="#000" stroke="none" d="M 4367.83,2293.5 L 4380.45,2340.45 L 4368.52,2342.4 L 4356.53,2297.8 L 4367.83,2293.5 Z" transform="matrix(0.05 0 0 0.05 -191 -110)"/><path fill="#000" stroke="none" d="M 4314.69,2313.68 L 4324.35,2349.63 L 4312.42,2351.59 L 4303.38,2317.98 L 4314.69,2313.68 Z" transform="matrix(0.05 0 0 0.05 -191 -110)"/><path fill="#000" stroke="none" d="M 4261.54,2333.86 L 4268.25,2358.82 L 4256.32,2360.77 L 4250.24,2338.16 L 4261.54,2333.86 Z" transform="matrix(0.05 0 0 0.05 -191 -110)"/><path fill="#000" stroke="none" d="M 4208.4,2354.04 L 4212.15,2368 L 4200.22,2369.96 L 4197.09,2358.34 L 4208.4,2354.04 Z" transform="matrix(0.05 0 0 0.05 -191 -110)"/><path fill="#108080" stroke="none" d="M 4020.73,2377.14 A 129.586,129.586 0 1 0 4279.9,2377.14A 129.586,129.586 0 1 0 4020.73,2377.14Z" transform="matrix(0.05 0 0 0.05 -191 -110)"/><path fill="#1e8787" stroke="none" d="M 4022.23,2375.12 A 126.059,126.059 0 1 0 4274.35,2375.12A 126.059,126.059 0 1 0 4022.23,2375.12Z" transform="matrix(0.05 0 0 0.05 -191 -110)"/><path fill="#2c8f8f" stroke="none" d="M 4023.73,2373.09 A 122.531,122.531 0 1 0 4268.79,2373.09A 122.531,122.531 0 1 0 4023.73,2373.09Z" transform="matrix(0.05 0 0 0.05 -191 -110)"/><path fill="#3a9696" stroke="none" d="M 4025.23,2371.07 A 119.004,119.004 0 1 0 4263.24,2371.07A 119.004,119.004 0 1 0 4025.23,2371.07Z" transform="matrix(0.05 0 0 0.05 -191 -110)"/><path fill="#489d9d" stroke="none" d="M 4026.74,2369.04 A 115.477,115.477 0 1 0 4257.69,2369.04A 115.477,115.477 0 1 0 4026.74,2369.04Z" transform="matrix(0.05 0 0 0.05 -191 -110)"/><path fill="#54a4a4" stroke="none" d="M 4028.24,2367.02 A 111.949,111.949 0 1 0 4252.14,2367.02A 111.949,111.949 0 1 0 4028.24,2367.02Z" transform="matrix(0.05 0 0 0.05 -191 -110)"/><path fill="#61abab" stroke="none" d="M 4029.74,2364.99 A 108.422,108.422 0 1 0 4246.58,2364.99A 108.422,108.422 0 1 0 4029.74,2364.99Z" transform="matrix(0.05 0 0 0.05 -191 -110)"/><path fill="#6db1b1" stroke="none" d="M 4031.24,2362.97 A 104.895,104.895 0 1 0 4241.03,2362.97A 104.895,104.895 0 1 0 4031.24,2362.97Z" transform="matrix(0.05 0 0 0.05 -191 -110)"/><path fill="#78b7b7" stroke="none" d="M 4032.75,2360.94 A 101.367,101.367 0 1 0 4235.48,2360.94A 101.367,101.367 0 1 0 4032.75,2360.94Z" transform="matrix(0.05 0 0 0.05 -191 -110)"/><path fill="#83bdbd" stroke="none" d="M 4034.25,2358.92 A 97.8398,97.8398 0 1 0 4229.93,2358.92A 97.8398,97.8398 0 1 0 4034.25,2358.92Z" transform="matrix(0.05 0 0 0.05 -191 -110)"/><path fill="#8ec2c2" stroke="none" d="M 4035.75,2356.89 A 94.3125,94.3125 0 1 0 4224.38,2356.89A 94.3125,94.3125 0 1 0 4035.75,2356.89Z" transform="matrix(0.05 0 0 0.05 -191 -110)"/><path fill="#98c8c8" stroke="none" d="M 4037.25,2354.87 A 90.7852,90.7852 0 1 0 4218.82,2354.87A 90.7852,90.7852 0 1 0 4037.25,2354.87Z" transform="matrix(0.05 0 0 0.05 -191 -110)"/><path fill="#a1cdcd" stroke="none" d="M 4038.76,2352.84 A 87.2578,87.2578 0 1 0 4213.27,2352.84A 87.2578,87.2578 0 1 0 4038.76,2352.84Z" transform="matrix(0.05 0 0 0.05 -191 -110)"/><path fill="#aad2d2" stroke="none" d="M 4040.26,2350.82 A 83.7305,83.7305 0 1 0 4207.72,2350.82A 83.7305,83.7305 0 1 0 4040.26,2350.82Z" transform="matrix(0.05 0 0 0.05 -191 -110)"/><path fill="#b3d6d6" stroke="none" d="M 4041.76,2348.79 A 80.2031,80.2031 0 1 0 4202.17,2348.79A 80.2031,80.2031 0 1 0 4041.76,2348.79Z" transform="matrix(0.05 0 0 0.05 -191 -110)"/><path fill="#bbdbdb" stroke="none" d="M 4043.26,2346.77 A 76.6758,76.6758 0 1 0 4196.62,2346.77A 76.6758,76.6758 0 1 0 4043.26,2346.77Z" transform="matrix(0.05 0 0 0.05 -191 -110)"/><path fill="#c3dfdf" stroke="none" d="M 4044.77,2344.74 A 73.1484,73.1484 0 1 0 4191.06,2344.74A 73.1484,73.1484 0 1 0 4044.77,2344.74Z" transform="matrix(0.05 0 0 0.05 -191 -110)"/><path fill="#cae3e3" stroke="none" d="M 4046.27,2342.72 A 69.6211,69.6211 0 1 0 4185.51,2342.72A 69.6211,69.6211 0 1 0 4046.27,2342.72Z" transform="matrix(0.05 0 0 0.05 -191 -110)"/><path fill="#d1e6e6" stroke="none" d="M 4047.77,2340.69 A 66.0938,66.0938 0 1 0 4179.96,2340.69A 66.0938,66.0938 0 1 0 4047.77,2340.69Z" transform="matrix(0.05 0 0 0.05 -191 -110)"/><path fill="#d7eaea" stroke="none" d="M 4049.27,2338.67 A 62.5664,62.5664 0 1 0 4174.41,2338.67A 62.5664,62.5664 0 1 0 4049.27,2338.67Z" transform="matrix(0.05 0 0 0.05 -191 -110)"/><path fill="#ddeded" stroke="none" d="M 4050.78,2336.64 A 59.0391,59.0391 0 1 0 4168.86,2336.64A 59.0391,59.0391 0 1 0 4050.78,2336.64Z" transform="matrix(0.05 0 0 0.05 -191 -110)"/><path fill="#e2efef" stroke="none" d="M 4052.28,2334.62 A 55.5117,55.5117 0 1 0 4163.3,2334.62A 55.5117,55.5117 0 1 0 4052.28,2334.62Z" transform="matrix(0.05 0 0 0.05 -191 -110)"/><path fill="#e7f2f2" stroke="none" d="M 4053.78,2332.6 A 51.9844,51.9844 0 1 0 4157.75,2332.6A 51.9844,51.9844 0 1 0 4053.78,2332.6Z" transform="matrix(0.05 0 0 0.05 -191 -110)"/><path fill="#ecf4f4" stroke="none" d="M 4055.28,2330.57 A 48.457,48.457 0 1 0 4152.2,2330.57A 48.457,48.457 0 1 0 4055.28,2330.57Z" transform="matrix(0.05 0 0 0.05 -191 -110)"/><path fill="#f0f7f7" stroke="none" d="M 4056.79,2328.55 A 44.9297,44.9297 0 1 0 4146.65,2328.55A 44.9297,44.9297 0 1 0 4056.79,2328.55Z" transform="matrix(0.05 0 0 0.05 -191 -110)"/><path fill="#f3f8f8" stroke="none" d="M 4058.29,2326.52 A 41.4023,41.4023 0 1 0 4141.09,2326.52A 41.4023,41.4023 0 1 0 4058.29,2326.52Z" transform="matrix(0.05 0 0 0.05 -191 -110)"/><path fill="#f6fafa" stroke="none" d="M 4059.79,2324.5 A 37.875,37.875 0 1 0 4135.54,2324.5A 37.875,37.875 0 1 0 4059.79,2324.5Z" transform="matrix(0.05 0 0 0.05 -191 -110)"/><path fill="#f9fbfb" stroke="none" d="M 4061.29,2322.47 A 34.3477,34.3477 0 1 0 4129.99,2322.47A 34.3477,34.3477 0 1 0 4061.29,2322.47Z" transform="matrix(0.05 0 0 0.05 -191 -110)"/><path fill="#fbfdfd" stroke="none" d="M 4062.8,2320.45 A 30.8203,30.8203 0 1 0 4124.44,2320.45A 30.8203,30.8203 0 1 0 4062.8,2320.45Z" transform="matrix(0.05 0 0 0.05 -191 -110)"/><path fill="#fcfdfd" stroke="none" d="M 4064.3,2318.42 A 27.293,27.293 0 1 0 4118.89,2318.42A 27.293,27.293 0 1 0 4064.3,2318.42Z" transform="matrix(0.05 0 0 0.05 -191 -110)"/><path fill="#fefefe" stroke="none" d="M 4065.8,2316.4 A 23.7656,23.7656 0 1 0 4113.33,2316.4A 23.7656,23.7656 0 1 0 4065.8,2316.4Z" transform="matrix(0.05 0 0 0.05 -191 -110)"/><path fill="#fefefe" stroke="none" d="M 4067.31,2314.37 A 20.2383,20.2383 0 1 0 4107.78,2314.37A 20.2383,20.2383 0 1 0 4067.31,2314.37Z" transform="matrix(0.05 0 0 0.05 -191 -110)"/><path fill="none" stroke="#108080" stroke-width="12" d="M 4020.73,2377.14 A 129.586,129.586 0 1 0 4279.9,2377.14A 129.586,129.586 0 1 0 4020.73,2377.14Z" transform="matrix(0.05 0 0 0.05 -191 -110)"/></svg>

<svg height="20" viewBox="0 0 33 20" width="33" xmlns="http://www.w3.org/2000/svg"><g transform="matrix(.05 0 0 .05 -191 -110)"><path d="m4151.61 2371.12-3.15 12.04h-286.12v-12.04z"/><path d="m4414.59 2495.15-30.01 51.95-236.12-163.94 3.15-12.04z"/><path d="m4420.98 2273.32 15.57 57.95-11.93 1.95-14.95-55.61z"/><path d="m4367.83 2293.5 12.62 46.95-11.93 1.95-11.99-44.6z"/><path d="m4314.69 2313.68 9.66 35.95-11.93 1.96-9.04-33.61z"/><path d="m4261.54 2333.86 6.71 24.96-11.93 1.95-6.08-22.61z"/><path d="m4208.4 2354.04 3.75 13.96-11.93 1.96-3.13-11.62z"/><path d="m4020.73 2377.14a129.586 129.586 0 1 0 259.17 0 129.586 129.586 0 1 0 -259.17 0z" fill="#108080"/><path d="m4022.23 2375.12a126.059 126.059 0 1 0 252.12 0 126.059 126.059 0 1 0 -252.12 0z" fill="#1e8787"/><path d="m4023.73 2373.09a122.531 122.531 0 1 0 245.06 0 122.531 122.531 0 1 0 -245.06 0z" fill="#2c8f8f"/><path d="m4025.23 2371.07a119.004 119.004 0 1 0 238.01 0 119.004 119.004 0 1 0 -238.01 0z" fill="#3a9696"/><path d="m4026.74 2369.04a115.477 115.477 0 1 0 230.95 0 115.477 115.477 0 1 0 -230.95 0z" fill="#489d9d"/><path d="m4028.24 2367.02a111.949 111.949 0 1 0 223.9 0 111.949 111.949 0 1 0 -223.9 0z" fill="#54a4a4"/><path d="m4029.74 2364.99a108.422 108.422 0 1 0 216.84 0 108.422 108.422 0 1 0 -216.84 0z" fill="#61abab"/><path d="m4031.24 2362.97a104.895 104.895 0 1 0 209.79 0 104.895 104.895 0 1 0 -209.79 0z" fill="#6db1b1"/><path d="m4032.75 2360.94a101.367 101.367 0 1 0 202.73 0 101.367 101.367 0 1 0 -202.73 0z" fill="#78b7b7"/><path d="m4034.25 2358.92a97.84 97.84 0 1 0 195.68 0 97.84 97.84 0 1 0 -195.68 0z" fill="#83bdbd"/><path d="m4035.75 2356.89a94.313 94.313 0 1 0 188.63 0 94.313 94.313 0 1 0 -188.63 0z" fill="#8ec2c2"/><path d="m4037.25 2354.87a90.785 90.785 0 1 0 181.57 0 90.785 90.785 0 1 0 -181.57 0z" fill="#98c8c8"/><path d="m4038.76 2352.84a87.258 87.258 0 1 0 174.51 0 87.258 87.258 0 1 0 -174.51 0z" fill="#a1cdcd"/><path d="m4040.26 2350.82a83.731 83.731 0 1 0 167.46 0 83.731 83.731 0 1 0 -167.46 0z" fill="#aad2d2"/><path d="m4041.76 2348.79a80.203 80.203 0 1 0 160.41 0 80.203 80.203 0 1 0 -160.41 0z" fill="#b3d6d6"/><path d="m4043.26 2346.77a76.676 76.676 0 1 0 153.36 0 76.676 76.676 0 1 0 -153.36 0z" fill="#bbdbdb"/><path d="m4044.77 2344.74a73.148 73.148 0 1 0 146.29 0 73.148 73.148 0 1 0 -146.29 0z" fill="#c3dfdf"/><path d="m4046.27 2342.72a69.621 69.621 0 1 0 139.24 0 69.621 69.621 0 1 0 -139.24 0z" fill="#cae3e3"/><path d="m4047.77 2340.69a66.094 66.094 0 1 0 132.19 0 66.094 66.094 0 1 0 -132.19 0z" fill="#d1e6e6"/><path d="m4049.27 2338.67a62.566 62.566 0 1 0 125.14 0 62.566 62.566 0 1 0 -125.14 0z" fill="#d7eaea"/><path d="m4050.78 2336.64a59.039 59.039 0 1 0 118.08 0 59.039 59.039 0 1 0 -118.08 0z" fill="#ddeded"/><path d="m4052.28 2334.62a55.512 55.512 0 1 0 111.02 0 55.512 55.512 0 1 0 -111.02 0z" fill="#e2efef"/><path d="m4053.78 2332.6a51.984 51.984 0 1 0 103.97 0 51.984 51.984 0 1 0 -103.97 0z" fill="#e7f2f2"/><path d="m4055.28 2330.57a48.457 48.457 0 1 0 96.92 0 48.457 48.457 0 1 0 -96.92 0z" fill="#ecf4f4"/><path d="m4056.79 2328.55a44.93 44.93 0 1 0 89.86 0 44.93 44.93 0 1 0 -89.86 0z" fill="#f0f7f7"/><path d="m4058.29 2326.52a41.402 41.402 0 1 0 82.8 0 41.402 41.402 0 1 0 -82.8 0z" fill="#f3f8f8"/><path d="m4059.79 2324.5a37.875 37.875 0 1 0 75.75 0 37.875 37.875 0 1 0 -75.75 0z" fill="#f6fafa"/><path d="m4061.29 2322.47a34.348 34.348 0 1 0 68.7 0 34.348 34.348 0 1 0 -68.7 0z" fill="#f9fbfb"/><path d="m4062.8 2320.45a30.82 30.82 0 1 0 61.64 0 30.82 30.82 0 1 0 -61.64 0z" fill="#fbfdfd"/><path d="m4064.3 2318.42a27.293 27.293 0 1 0 54.59 0 27.293 27.293 0 1 0 -54.59 0z" fill="#fcfdfd"/><path d="m4065.8 2316.4a23.766 23.766 0 1 0 47.53 0 23.766 23.766 0 1 0 -47.53 0z" fill="#fefefe"/><path d="m4067.31 2314.37a20.238 20.238 0 1 0 40.47 0 20.238 20.238 0 1 0 -40.47 0z" fill="#fefefe"/><path d="m4020.73 2377.14a129.586 129.586 0 1 0 259.17 0 129.586 129.586 0 1 0 -259.17 0z" fill="none" stroke="#108080" stroke-width="12"/></g></svg>
